build/system/LoaderSolid.svg

<svg xmlns="http://www.w3.org/2000/svg" fill="none" viewBox="0 0 24 24" focusable="false"><path d="M0 0H24V24H0z"/><path fill="#74767B" fill-rule="evenodd" d="M12.0073 21C16.9779 21 21.0073 16.9706 21.0073 12C21.0073 7.02944 16.9779 3 12.0073 3C7.03676 3 3.00732 7.02944 3.00732 12C3.00732 16.9706 7.03676 21 12.0073 21ZM12.6573 15.6541C12.6573 15.2928 12.3663 15 12.0073 15C11.6483 15 11.3573 15.2928 11.3573 15.6541L11.3573 17.8459C11.3573 18.2072 11.6483 18.5 12.0073 18.5C12.3663 18.5 12.6573 18.2072 12.6573 17.8459L12.6573 15.6541ZM9.00018 12C9.00018 12.359 8.70734 12.65 8.3461 12.65L6.15427 12.65C5.79303 12.65 5.50018 12.359 5.50018 12C5.50018 11.641 5.79303 11.35 6.15427 11.35L8.3461 11.35C8.70734 11.35 9.00018 11.641 9.00018 12ZM8.96391 9.87579C9.21935 10.1312 9.6322 10.1325 9.88604 9.87868C10.1399 9.62484 10.1386 9.21199 9.88315 8.95655L8.3333 7.4067C8.07786 7.15126 7.66501 7.14996 7.41117 7.40381C7.15733 7.65765 7.15862 8.0705 7.41406 8.32594L8.96391 9.87579ZM9.87885 14.1213C10.1327 14.3751 10.1314 14.788 9.87596 15.0434L8.32611 16.5933C8.07067 16.8487 7.65782 16.85 7.40398 16.5962C7.15014 16.3423 7.15143 15.9295 7.40687 15.674L8.95672 14.1242C9.21216 13.8688 9.62501 13.8675 9.87885 14.1213ZM12.6573 6.15409C12.6573 5.79285 12.3663 5.5 12.0073 5.5C11.6483 5.5 11.3573 5.79285 11.3573 6.15409L11.3573 8.34591C11.3573 8.70716 11.6483 9 12.0073 9C12.3663 9 12.6573 8.70716 12.6573 8.34591L12.6573 6.15409ZM18.5002 12C18.5002 12.359 18.2073 12.65 17.8461 12.65L15.6543 12.65C15.293 12.65 15.0002 12.359 15.0002 12C15.0002 11.641 15.293 11.35 15.6543 11.35L17.8461 11.35C18.2073 11.35 18.5002 11.641 18.5002 12ZM15.6814 16.5933C15.9368 16.8487 16.3497 16.85 16.6035 16.5962C16.8574 16.3424 16.8561 15.9295 16.6007 15.6741L15.0508 14.1242C14.7954 13.8688 14.3825 13.8675 14.1287 14.1213C13.8748 14.3752 13.8761 14.788 14.1316 15.0434L15.6814 16.5933Z"/></svg>

<svg xmlns="http://www.w3.org/2000/svg" fill="none" viewBox="0 0 24 24" focusable="false"><path fill="#74767B" fill-rule="evenodd" d="M12 21a9 9 0 0 0 9-9c0-4.98-4.03-9-9-9s-9 4.02-9 9a9 9 0 0 0 9 9m.65-5.35c0-.36-.29-.65-.65-.65s-.65.29-.65.65v2.19c0 .36.29.66.65.66s.65-.3.65-.66zM9 12c0 .35-.3.65-.66.65H6.15c-.36 0-.65-.3-.65-.65 0-.36.29-.65.65-.65h2.19c.36 0 .66.29.66.65m-.04-2.13c.25.26.67.26.92 0 .25-.25.25-.66 0-.92L8.33 7.4a.65.65 0 0 0-.92 0 .64.64 0 0 0 0 .92zm.91 4.25c.26.25.26.66 0 .92l-1.55 1.55c-.25.25-.67.26-.92 0a.65.65 0 0 1 0-.92l1.55-1.55a.64.64 0 0 1 .92 0m2.78-7.97c0-.36-.29-.65-.65-.65s-.65.29-.65.65v2.19c0 .36.29.66.65.66s.65-.3.65-.66zM18.5 12c0 .35-.3.65-.66.65h-2.19c-.36 0-.65-.3-.65-.65 0-.36.29-.65.65-.65h2.19c.36 0 .66.29.66.65m-2.82 4.59c.25.25.66.26.92 0 .25-.25.25-.67 0-.92l-1.55-1.55a.65.65 0 0 0-.93 0c-.25.25-.25.66.01.92z"/></svg>
